X:1
T:Aka Tombo
T:赤とんぼ
T:Kousaku Yamada 山田　耕作
T:Rofuu Miki 三木　露風
T:赤とんぼ 
T:Aka Tombo 
T:1927
T:１．夕焼け小焼けの　赤とんぼ 負われて　見たのは　いつの日か 
T:２．山の畑の　桑の実を 小かごに摘んだは　まぼろしか 
T:３．十五でねえやは　嫁に行き お里の　便りも　絶え果てた 
T:４．夕焼け小焼けの　赤とんぼ とまっているよ　竿の先 
T:Aka Tombo - Romaji - ローマ字 - 赤とんぼ
T:Copyright © 1927
T:Copyright © 1927
C:Kousaku Yamada
C:山田　耕作
Z:Rofuu Miki
Z:三木　露風
Z:Copyright © 1927
L:1/8
Q:1/4=80
M:3/4
K:C
V:1 treble nm=" " snm=" "
V:1
"C" G,C C3 D |"Am" EG"C" cA G2 |"F" AC C2"G7" D2 |"C" E4 z2 |"Em" EA G3 A |"Am" cA"Em" GA GE | %6
w: １．ゆ う や け|こ や け － の|あ か と ん|ぼ|お わ れ て|み た の － は ー|
w: ２．や ー ま の|は た け ー の|く わ の み|お|こ か ご に|つ ん だ ー は ー|
w: ３．じゅ ー ご で|ね ー や ー は|よ め に ゆ|き|お さ と の|た ー よ り も ー|
w: ４．ゆ う や け|こ や け ー の|あ か と ん|ぼ|と まっ て ー|い ー る ー よ ー|
"C" GE"F" CE"G7" DC |"C" C4 z2 ::[M:3/4]"C" G,C C3 D |"Am" EG"C" cA G2 |"F" AC C2"G7" D2 | %11
w: い つ の ー ひ ー|か|１．Yu- u- ya- ke|ko- ya- ke _ no|a- ka to- n-|
w: ま ぼ ろ ー し ー|か|２．Ya- * ma no|ha- ta- ke _ no|ku- wa no mi|
w: た え は ー て ー|た|３．Jyu- * go de|ne- * ya _ wa|yo- me ni yu-|
w: さ お の ー さ ー|き|４．Yu- u- ya- ke|ko- ya- ke _ no|a- ka to- n-|
"C" E4 z2 |"Em" EA G3 A |"Am" cA"Em" GA GE |"C" GE"F" CE"G7" DC |"C" C4 z2 :| %16
w: bo|o- wa- re- te|mi- ta no _ wa _|it- tsu no _ hi _|ka|
w: wo|ko- ka- go ni|tsu- n- da _ wa _|ma- bo- ro- * shi- *|ka|
w: ki|o- sa- to no|ta- * yo- ri mo _|ta- e- ha- * te- *|ta|
w: bo|to- ma- * tte|i- * ru- * yo _|sa- o no _ sa- *|ki|

